swiss/communes/0031.svg

<?xml version="1.0" encoding="UTF-8" standalone="no"?>
<!-- Created with Inkscape (http://www.inkscape.org/) -->
<svg
   xmlns:svg="http://www.w3.org/2000/svg"
   xmlns="http://www.w3.org/2000/svg"
   version="1.0"
   width="217.72026"
   height="255.02536"
   id="svg2780">
  <defs
     id="defs2782" />
  <g
     transform="translate(-15.038592,-799.20918)"
     id="layer1">
    <path
       d="M 16.038592,800.20919 L 19.960775,964.96989 C 22.762326,1082.6561 225.0351,1082.6561 227.83666,964.96989 L 231.75885,800.20919 L 16.038592,800.20919 z"
       id="path3282"
       style="fill:#f8e639;fill-opacity:1;fill-rule:evenodd;stroke:#000000;stroke-width:2;stroke-linecap:butt;stroke-miterlimit:4;stroke-dashoffset:0;stroke-opacity:1" />
    <path
       d="M 109.99003,1000.8499 C 100.38363,986.87177 79.934041,982.59979 52.958655,952.87359 C 79.934041,982.59979 100.38363,986.87177 109.99003,1000.8499 C 113.93533,1006.5906 116.14312,1008.4333 116.11061,1010.1706 C 116.06858,1012.417 116.86667,1016.6596 120.52829,1020.1938 L 120.52829,1039.8661 C 123.33265,1040.3803 126.05056,1040.6532 128.85039,1039.8661 L 128.85039,1020.1938 C 132.51202,1016.6596 133.31011,1012.417 133.26807,1010.1706 C 133.23556,1008.4333 135.51706,1006.1318 139.83116,1000.6628 C 149.0763,988.94289 186.9345,966.70527 199.86876,946.99744 C 186.9345,966.70527 149.0763,988.94289 139.83116,1000.6628 C 142.74262,1004.8672 144.07389,1006.3557 148.3536,1007.4511 C 148.73899,1006.813 149.03187,1006.1847 149.41507,1005.3757 C 152.8638,1007.7667 156.31253,1008.1645 159.76126,1007.6751 C 159.46322,1006.9937 159.16519,1006.3125 158.86715,1005.6311 C 162.72596,1005.9786 166.48926,1005.8483 170.10746,1004.9924 C 169.97973,1004.226 169.852,1003.4596 169.72427,1002.6931 C 173.50456,1002.0607 177.0344,1000.4264 180.5814,998.86082 C 180.19821,998.39242 179.81502,997.92404 179.43182,997.45564 C 182.94527,996.49843 185.67807,994.7605 187.98978,992.60144 C 187.09567,992.34596 186.20155,992.09048 185.30744,991.83499 C 188.88891,990.5701 192.16999,988.55411 195.27045,986.08659 C 194.46149,985.74594 193.65253,985.40529 192.84356,985.06464 C 195.1489,983.18778 197.24245,981.33867 198.59145,979.69947 C 197.78249,979.44399 196.97353,979.1885 196.16456,978.93301 C 198.71725,977.08462 200.7159,974.31277 202.55111,971.26848 C 201.74214,971.14074 200.93318,971.013 200.12422,970.88525 C 202.00515,968.25777 203.16028,965.44884 204.08388,962.582 C 203.14719,962.41168 202.2105,962.24136 201.2738,962.07103 C 203.37705,959.6303 204.30571,956.95462 205.23346,954.27875 C 204.29676,954.6194 203.36007,954.96004 202.42338,955.3007 C 205.49911,950.23358 205.0365,945.16647 204.85027,940.09936 C 203.00913,942.57937 200.8067,944.4271 198.87525,946.18449 C 198.38885,945.36515 197.72615,944.60786 197.5696,943.5484 C 194.60884,944.95246 192.28224,946.77933 190.03348,948.65809 C 190.11863,947.55098 190.20379,946.44389 190.28894,945.33679 C 186.84236,946.44604 184.0877,948.24728 181.34778,950.06326 C 181.3052,949.21164 181.26263,948.36003 181.22005,947.50841 C 178.00953,948.52929 174.99551,950.53267 172.02343,952.74585 C 171.8957,951.63874 171.94861,951.25427 171.82088,950.14717 C 169.3909,951.54 166.93228,952.81819 164.74277,955.17295 C 164.8705,953.85295 164.54664,953.43621 164.67437,952.11621 C 161.31078,954.30524 158.39881,956.01539 155.03523,959.64393 C 155.29069,958.70715 155.54615,957.77037 155.80161,956.8336 C 152.18649,958.55451 150.23944,961.75828 148.77641,965.39233 C 148.47837,964.15749 148.18033,962.92265 147.88229,961.68781 C 144.97665,963.84996 143.67066,967.46648 143.41171,972.03493 C 143.07109,970.97041 142.73048,969.90589 142.38986,968.84137 C 138.7403,971.16056 138.54604,975.09235 138.43021,979.06075 C 137.62124,978.59237 136.81228,978.12398 136.00332,977.65559 C 135.87551,980.97689 135.70466,984.29819 136.51425,987.61949 C 135.66271,987.44916 134.9918,987.27885 134.14027,986.56656 C 134.35483,990.73021 135.22539,995.04965 138.55518,997.77538 C 134.72418,1001.1605 130.38225,1005.4397 128.59493,1009.9744 L 128.21174,975.35623 C 128.19097,973.47978 130.93666,970.24654 133.06551,968.84137 C 133.19324,965.30718 133.32098,961.77297 133.44871,958.23877 C 131.69272,958.87356 129.39481,960.23098 128.27107,961.85939 C 128.10075,953.89679 128.38205,946.65679 128.21174,938.69419 L 121.16694,938.69419 C 120.99663,946.65679 121.27793,953.89679 121.10762,961.85939 C 119.98387,960.23098 117.68596,958.87356 115.92997,958.23877 C 116.0577,961.77297 116.18544,965.30718 116.31317,968.84137 C 118.44202,970.24654 121.18771,973.47978 121.16694,975.35623 L 120.78375,1009.9744 C 118.99643,1005.4397 114.6545,1001.1605 110.8235,997.77538 C 114.15329,995.04965 115.02385,990.73021 115.23841,986.56656 C 114.38688,987.27885 113.71597,987.44916 112.86443,987.61949 C 113.31274,985.29179 113.14189,981.06722 113.01408,977.74592 C 112.20512,978.2143 111.75744,978.59237 110.94847,979.06075 C 110.83264,975.09235 110.00614,972.51547 107.71137,969.20269 C 107.37075,970.26721 106.30759,970.97041 105.96697,972.03493 C 105.70802,967.46648 104.40203,963.84996 101.49639,961.68781 C 101.19835,962.92265 100.90031,964.15749 100.60227,965.39233 C 99.139232,961.75828 97.192187,958.55451 93.57707,956.8336 C 93.832531,957.77037 94.087992,958.70715 94.343453,959.64393 C 90.97987,956.01539 88.067895,954.30524 84.704313,952.11621 C 84.832044,953.43621 84.508178,953.85295 84.635908,955.17295 C 82.446402,952.81819 79.987775,951.54 77.557803,950.14717 C 77.430072,951.25427 77.482982,951.63874 77.355252,952.74585 C 74.383172,950.53267 71.369147,948.52929 68.158629,947.50841 C 68.116049,948.36003 68.073478,949.21164 68.030897,950.06326 C 65.153873,948.79574 62.43362,946.85687 59.089736,945.33679 C 59.174887,946.44389 59.260047,947.55098 59.345197,948.65809 C 57.096438,946.77933 54.769836,944.95246 51.80908,943.5484 C 51.471894,944.78852 51.170467,945.81678 51.135666,946.81679 C 49.204214,945.20738 46.36955,942.89916 44.528413,940.09936 C 44.342178,945.16647 43.879565,950.23358 46.955303,955.3007 C 46.153699,954.68984 45.186877,954.40946 44.145223,954.27875 C 45.07297,956.95462 46.001629,959.6303 48.104877,962.07103 C 47.168183,962.24136 46.231489,962.41168 45.294797,962.582 C 46.218403,965.44884 47.64449,968.70941 49.525419,971.33689 C 48.716456,971.46463 47.636535,971.14074 46.827571,971.26848 C 48.662775,974.31277 50.932391,977.44593 53.485073,979.29433 C 52.67611,979.54981 51.505869,978.90203 50.696907,979.15751 C 52.045906,980.79671 54.500737,983.63941 56.806075,985.51628 C 55.997111,985.85693 54.917191,985.38462 54.108228,985.72527 C 57.208694,988.1928 60.128493,990.84108 63.709966,992.10597 L 61.388895,992.60144 C 63.700607,994.7605 67.155962,997.22105 70.66941,998.17826 L 68.797281,998.86082 C 72.344281,1000.4264 75.874116,1002.0607 79.654409,1002.6931 C 78.984763,1003.3693 78.224798,1003.7743 77.64547,1004.1795 C 81.263673,1005.0354 86.291437,1006.2495 90.150252,1005.9021 C 89.852211,1006.5834 89.55418,1007.2647 89.256139,1007.946 C 92.704871,1008.4355 96.514881,1007.7667 99.963614,1005.3757 C 100.34681,1006.1847 100.63969,1006.813 101.02508,1007.4511 C 104.99279,1006.7306 107.98081,1004.5136 109.99003,1000.8499 z"
       id="path16570"
       style="fill:#3c723a;fill-opacity:1;fill-rule:evenodd;stroke:#000000;stroke-width:1px;stroke-linecap:butt;stroke-linejoin:round;stroke-opacity:1" />
    <g
       transform="matrix(1.1758312,0,0,1.1758312,-22.842182,-156.43902)"
       id="g2614">
      <path
         d="M 122.85891,14.452919 L 139.00283,59.061609 L 186.41696,60.630547 L 148.98032,89.769168 L 162.13994,135.34751 L 122.85891,108.74748 L 83.577873,135.34751 L 96.7375,89.769167 L 59.300861,60.630543 L 106.71499,59.061608 L 122.85891,14.452919 z"
         transform="matrix(0.848724,0,0,0.8487245,20.536078,814.96074)"
         id="path16632"
         style="fill:#3c723a;fill-opacity:1;fill-rule:evenodd;stroke:#000000;stroke-width:1.00125873;stroke-linecap:butt;stroke-linejoin:round;stroke-miterlimit:4;stroke-dasharray:none;stroke-opacity:1" />
      <path
         d="M 115.90046,898.0871 C 111.67505,895.0455 96.931604,901.9093 96.779355,909.0748 C 96.629144,916.1446 80.730935,919.6053 75.67431,896.807 C 70.597426,873.9172 89.338866,870.8357 97.455207,878.5688 C 105.61957,886.3476 108.47884,882.2847 108.90052,881.2608 C 109.2834,880.3312 107.6823,871.5605 98.466575,871.9647 C 89.255536,872.3688 77.482276,859.0734 94.433058,845.6928 C 111.21908,832.44218 120.5961,841.8788 121.22255,848.8135 C 121.84983,855.7575 118.91883,869.1736 124.26976,868.9467 C 129.52503,868.7239 129.98026,859.4316 129.79002,848.4039 C 129.60147,837.4721 142.60614,837.7205 152.12457,844.4927 C 161.70674,851.3103 166.36192,859.6802 160.69732,865.8391 C 155.07646,871.9505 136.77148,874.0398 139.2647,879.7519 C 141.74283,885.4295 155.65384,878.097 162.24585,876.2137 C 168.92641,874.3051 176.92436,882.5337 171.84521,899.8012 C 166.79201,916.9803 155.22845,915.8137 151.45306,912.6073 C 147.72456,909.4407 139.47511,894.0437 134.62829,898.1349 C 129.67826,902.313 143.66743,915.5748 144.59388,918.403 C 145.54874,921.3181 144.61975,934.5452 122.79489,932.8559 C 101.07248,931.1744 103.4868,918.5409 105.34973,915.6236 C 107.1854,912.749 120.43085,901.3482 115.90046,898.0871 z"
         id="path16592"
         style="color:#000000;fill:#ce3821;fill-opacity:1;fill-rule:evenodd;stroke:#000000;stroke-width:0.85046214px;stroke-linecap:butt;stroke-linejoin:miter;marker:none;marker-start:none;marker-mid:none;marker-end:none;stroke-miterlimit:4;stroke-dashoffset:0;stroke-opacity:1;visibility:visible;display:inline;overflow:visible;enable-background:accumulate" />
      <path
         d="M 114.01042,899.7831 C 109.81372,896.4681 108.88424,909.6464 99.969419,912.4961 C 84.828171,917.3365 85.953612,898.8281 86.244918,897.1613 C 86.519987,895.5872 72.476061,879.4891 85.117386,874.4181 C 94.96052,870.4697 104.29866,884.538 106.53123,879.3148 C 108.7487,874.1268 94.192656,875.4382 89.771097,869.3477 C 80.719419,856.8795 99.247611,851.6392 100.97792,851.7978 C 102.81116,851.9658 112.18818,838.1116 120.57857,844.663 C 129.12179,851.3337 117.60637,866.7504 124.39259,867.0006 C 131.27453,867.2544 120.60812,852.4746 129.81701,845.4035 C 139.08607,838.2863 147.22199,853.1317 148.41335,853.7607 C 149.5628,854.3675 167.09973,856.7567 160.53261,867.9186 C 153.92364,879.1516 138.41786,873.4274 141.40039,878.956 C 144.42306,884.559 157.51313,867.5198 165.43591,876.2804 C 173.40623,885.0936 162.35669,895.4573 162.09536,896.8007 C 161.81221,898.2562 162.42202,915.5356 150.94876,913.5367 C 139.56852,911.5538 140.13922,896.3014 135.80549,899.6392 C 131.42581,903.0124 148.07465,908.9145 145.10013,921.4545 C 142.14713,933.9041 124.75439,923.2845 123.01355,924.5838 C 121.31976,925.8481 106.6183,930.4162 103.26799,920.3302 C 99.946359,910.3307 118.26586,903.1447 114.01042,899.7831 z"
         id="path4048"
         style="color:#000000;fill:#ce3821;fill-opacity:1;fill-rule:evenodd;stroke:#000000;stroke-width:0.84979254;stroke-linecap:butt;stroke-linejoin:miter;marker:none;marker-start:none;marker-mid:none;marker-end:none;stroke-miterlimit:4;stroke-dasharray:none;stroke-dashoffset:0;stroke-opacity:1;visibility:visible;display:inline;overflow:visible;enable-background:accumulate" />
      <path
         d="M 123.03518,107.1987 L 118.34825,87.38807 L 98.722034,89.534166 L 116.11472,78.954811 L 108.00883,60.95235 L 123.44503,74.224578 L 138.06153,60.952349 L 130.20894,79.734393 L 147.34832,89.534165 L 127.05896,87.869878 L 123.03518,107.1987 z"
         transform="matrix(0.8486381,0,0,0.8486379,20.143538,816.34374)"
         id="path16628"
         style="fill:none;fill-opacity:1;fill-rule:evenodd;stroke:#000000;stroke-width:1.00136054;stroke-linecap:butt;stroke-linejoin:round;stroke-miterlimit:4;stroke-dasharray:none;stroke-opacity:1" />
      <path
         d="M 138.72305,82.515686 A 13.925185,13.925185 0 1 1 110.87268,82.515686 A 13.925185,13.925185 0 1 1 138.72305,82.515686 z"
         transform="matrix(0.9946837,0,0,0.9946371,0.6187879,802.86506)"
         id="path16624"
         style="opacity:1;color:#000000;fill:#f8e639;fill-opacity:1;fill-rule:evenodd;stroke:#000000;stroke-width:0.85502777pt;stroke-linecap:butt;stroke-linejoin:miter;marker:none;marker-start:none;marker-mid:none;marker-end:none;stroke-miterlimit:4;stroke-dasharray:none;stroke-dashoffset:0;stroke-opacity:1;visibility:visible;display:inline;overflow:visible;enable-background:accumulate" />
    </g>
  </g>
</svg>

<svg xmlns="http://www.w3.org/2000/svg" version="1.0" width="217.72" height="255.025"><path d="m16.039 800.21 3.922 164.76c2.801 117.686 205.074 117.686 207.876 0l3.922-164.76H16.039z" style="fill:#f8e639;fill-opacity:1;fill-rule:evenodd;stroke:#000;stroke-width:2;stroke-linecap:butt;stroke-miterlimit:4;stroke-dashoffset:0;stroke-opacity:1" transform="translate(-15.039 -799.21)"/><path d="M109.99 1000.85c-9.606-13.978-30.056-18.25-57.031-47.976 26.975 29.726 47.425 33.998 57.031 47.976 3.945 5.74 6.153 7.583 6.12 9.32-.041 2.247.757 6.49 4.418 10.024v19.672c2.805.514 5.523.787 8.322 0v-19.672c3.662-3.534 4.46-7.777 4.418-10.023-.032-1.738 2.25-4.04 6.563-9.508 9.245-11.72 47.104-33.958 60.038-53.666-12.934 19.708-50.793 41.946-60.038 53.666 2.912 4.204 4.243 5.693 8.523 6.788.385-.638.678-1.266 1.061-2.075 3.449 2.39 6.898 2.788 10.346 2.3l-.894-2.045c3.859.348 7.622.217 11.24-.639l-.383-2.299c3.78-.632 7.31-2.267 10.857-3.832l-1.15-1.405c3.514-.958 6.247-2.696 8.559-4.855l-2.683-.766c3.582-1.265 6.863-3.28 9.963-5.748l-2.426-1.022c2.305-1.877 4.398-3.726 5.747-5.366l-2.426-.766c2.552-1.848 4.55-4.62 6.386-7.665l-2.427-.383c1.881-2.627 3.036-5.436 3.96-8.303l-2.81-.511c2.103-2.44 3.032-5.116 3.96-7.792l-2.81 1.022c3.075-5.067 2.612-10.135 2.426-15.202-1.84 2.48-4.043 4.328-5.975 6.085-.486-.819-1.149-1.576-1.305-2.636-2.961 1.404-5.288 3.231-7.537 5.11l.256-3.321c-3.447 1.109-6.201 2.91-8.941 4.726l-.128-2.555c-3.21 1.021-6.224 3.025-9.197 5.238-.127-1.107-.074-1.492-.202-2.599-2.43 1.393-4.889 2.671-7.078 5.026.127-1.32-.196-1.737-.069-3.057-3.363 2.19-6.275 3.9-9.639 7.528l.767-2.81c-3.616 1.72-5.563 4.924-7.026 8.558l-.894-3.704c-2.905 2.162-4.211 5.778-4.47 10.347l-1.022-3.194c-3.65 2.32-3.844 6.251-3.96 10.22l-2.427-1.405c-.127 3.32-.298 6.642.511 9.963-.851-.17-1.522-.34-2.374-1.052.215 4.163 1.085 8.483 4.415 11.208-3.83 3.385-8.173 7.665-9.96 12.2l-.383-34.619c-.021-1.876 2.725-5.11 4.854-6.515l.383-10.602c-1.756.635-4.054 1.992-5.178 3.62-.17-7.962.111-15.202-.06-23.165h-7.044c-.17 7.963.11 15.203-.06 23.165-1.123-1.628-3.421-2.985-5.177-3.62l.383 10.602c2.129 1.406 4.875 4.639 4.854 6.515l-.383 34.618c-1.788-4.534-6.13-8.814-9.96-12.199 3.33-2.725 4.2-7.045 4.414-11.208-.851.712-1.522.882-2.374 1.052.449-2.327.278-6.552.15-9.873-.809.468-1.257.846-2.066 1.315-.115-3.969-.942-6.546-3.237-9.858-.34 1.064-1.403 1.767-1.744 2.832-.259-4.569-1.565-8.185-4.47-10.347l-.895 3.704c-1.463-3.634-3.41-6.837-7.025-8.558l.766 2.81c-3.363-3.629-6.275-5.339-9.639-7.528.128 1.32-.196 1.737-.068 3.057-2.19-2.355-4.648-3.633-7.078-5.026-.128 1.107-.075 1.492-.203 2.599-2.972-2.213-5.986-4.217-9.196-5.238l-.128 2.555c-2.877-1.267-5.597-3.206-8.941-4.726l.255 3.321c-2.249-1.879-4.575-3.706-7.536-5.11-.337 1.24-.639 2.269-.673 3.269-1.932-1.61-4.766-3.918-6.608-6.718-.186 5.067-.648 10.135 2.427 15.202-.801-.611-1.768-.892-2.81-1.022.928 2.676 1.857 5.351 3.96 7.792l-2.81.511c.923 2.867 2.35 6.127 4.23 8.755-.809.128-1.888-.196-2.697-.069 1.835 3.045 4.104 6.178 6.657 8.026-.809.256-1.98-.392-2.788-.136 1.349 1.639 3.804 4.481 6.11 6.358-.81.34-1.89-.131-2.699.21 3.1 2.467 6.02 5.115 9.602 6.38l-2.321.495c2.312 2.16 5.767 4.62 9.28 5.577l-1.872.683c3.547 1.565 7.077 3.2 10.857 3.832-.67.676-1.43 1.081-2.009 1.486 3.619.856 8.646 2.07 12.505 1.723l-.894 2.044c3.449.49 7.259-.18 10.708-2.57.383.809.676 1.437 1.061 2.075 3.968-.72 6.956-2.937 8.965-6.601z" style="fill:#3c723a;fill-opacity:1;fill-rule:evenodd;stroke:#000;stroke-width:1px;stroke-linecap:butt;stroke-linejoin:round;stroke-opacity:1" transform="translate(-15.039 -799.21)"/><path d="m122.859 14.453 16.144 44.609 47.414 1.569-37.437 29.138 13.16 45.579-39.281-26.6-39.281 26.6 13.16-45.579L59.3 60.631l47.414-1.57 16.144-44.608z" transform="matrix(.99796 0 0 .99796 -13.734 2.608)" style="fill:#3c723a;fill-opacity:1;fill-rule:evenodd;stroke:#000;stroke-width:1.00125873;stroke-linecap:butt;stroke-linejoin:round;stroke-miterlimit:4;stroke-dasharray:none;stroke-opacity:1"/><path d="M115.9 898.087c-4.225-3.042-18.968 3.822-19.12 10.988-.15 7.07-16.05 10.53-21.106-12.268-5.077-22.89 13.665-25.971 21.781-18.238 8.165 7.779 11.024 3.716 11.446 2.692.382-.93-1.219-9.7-10.434-9.296-9.211.404-20.985-12.892-4.034-26.272 16.786-13.25 26.163-3.814 26.79 3.12.627 6.945-2.304 20.36 3.047 20.134 5.255-.223 5.71-9.515 5.52-20.543-.189-10.932 12.816-10.683 22.335-3.911 9.582 6.817 14.237 15.187 8.572 21.346-5.62 6.111-23.926 8.2-21.432 13.913 2.478 5.678 16.389-1.655 22.98-3.538 6.681-1.909 14.68 6.32 9.6 23.587-5.053 17.18-16.617 16.013-20.392 12.806-3.728-3.166-11.978-18.563-16.825-14.472-4.95 4.178 9.04 17.44 9.966 20.268.955 2.915.026 16.142-21.8 14.453-21.722-1.682-19.307-14.315-17.444-17.232 1.835-2.875 15.08-14.276 10.55-17.537z" style="color:#000;fill:#ce3821;fill-opacity:1;fill-rule:evenodd;stroke:#000;stroke-width:.85046214px;stroke-linecap:butt;stroke-linejoin:miter;marker:none;marker-start:none;marker-mid:none;marker-end:none;stroke-miterlimit:4;stroke-dashoffset:0;stroke-opacity:1;visibility:visible;display:inline;overflow:visible;enable-background:accumulate" transform="translate(-37.88 -955.648) scale(1.17583)"/><path d="M114.01 899.783c-4.196-3.315-5.126 9.863-14.04 12.713-15.142 4.84-14.016-13.668-13.725-15.335.275-1.574-13.769-17.672-1.128-22.743 9.844-3.948 19.182 10.12 21.414 4.897 2.218-5.188-12.338-3.877-16.76-9.967-9.052-12.468 9.477-17.709 11.207-17.55 1.833.168 11.21-13.686 19.6-7.135 8.544 6.67-2.972 22.087 3.815 22.338 6.882.253-3.785-14.526 5.424-21.597 9.27-7.118 17.405 7.728 18.596 8.357 1.15.606 18.687 2.996 12.12 14.158-6.61 11.233-22.115 5.508-19.133 11.037 3.023 5.603 16.113-11.436 24.036-2.676 7.97 8.814-3.08 19.177-3.34 20.52-.284 1.456.326 18.736-11.147 16.737-11.38-1.983-10.81-17.236-15.144-13.898-4.38 3.373 12.27 9.275 9.295 21.816-2.953 12.45-20.346 1.83-22.086 3.129-1.694 1.264-16.396 5.832-19.746-4.254-3.322-10 14.998-17.185 10.742-20.547z" style="color:#000;fill:#ce3821;fill-opacity:1;fill-rule:evenodd;stroke:#000;stroke-width:.84979254;stroke-linecap:butt;stroke-linejoin:miter;marker:none;marker-start:none;marker-mid:none;marker-end:none;stroke-miterlimit:4;stroke-dasharray:none;stroke-dashoffset:0;stroke-opacity:1;visibility:visible;display:inline;overflow:visible;enable-background:accumulate" transform="translate(-37.88 -955.648) scale(1.17583)"/><path d="m123.035 107.199-4.687-19.81-19.626 2.145 17.393-10.58-8.106-18.002 15.436 13.273 14.617-13.273-7.853 18.782 17.14 9.8-20.29-1.664-4.024 19.329z" transform="matrix(.99786 0 0 .99785 -14.195 4.234)" style="fill:none;fill-opacity:1;fill-rule:evenodd;stroke:#000;stroke-width:1.00136054;stroke-linecap:butt;stroke-linejoin:round;stroke-miterlimit:4;stroke-dasharray:none;stroke-opacity:1"/><path d="M138.723 82.516a13.925 13.925 0 1 1-27.85 0 13.925 13.925 0 1 1 27.85 0z" transform="matrix(1.16958 0 0 1.16953 -37.153 -11.614)" style="opacity:1;color:#000;fill:#f8e639;fill-opacity:1;fill-rule:evenodd;stroke:#000;stroke-width:.85502777pt;stroke-linecap:butt;stroke-linejoin:miter;marker:none;marker-start:none;marker-mid:none;marker-end:none;stroke-miterlimit:4;stroke-dasharray:none;stroke-dashoffset:0;stroke-opacity:1;visibility:visible;display:inline;overflow:visible;enable-background:accumulate"/></svg>
